packages/core/src/svgs/tokens/branded/MLN.svg

<svg width="24" height="24" viewBox="0 0 24 24" fill="none" xmlns="http://www.w3.org/2000/svg">
<path d="M13.8919 5.51355C12.9946 5.51355 12.2703 6.2595 12.2703 7.17841V12H9.02701V8.7622C9.02772 8.61978 9.00029 8.47862 8.94628 8.34683C8.89227 8.21504 8.81275 8.09522 8.71229 7.99426C8.61183 7.89331 8.49242 7.81319 8.36089 7.75851C8.22938 7.70385 8.08836 7.67571 7.94594 7.67571C7.8035 7.67571 7.66248 7.70385 7.53097 7.75851C7.39946 7.81319 7.28004 7.89331 7.17958 7.99426C7.07913 8.09522 6.9996 8.21504 6.9456 8.34683C6.89158 8.47862 6.86414 8.61978 6.86485 8.7622V12H4.16216V10.9189C4.16216 10.6322 4.04826 10.3572 3.84552 10.1546C3.64278 9.95175 3.3678 9.83786 3.08108 9.83786C2.79437 9.83786 2.51939 9.95175 2.31664 10.1546C2.1139 10.3572 2 10.6322 2 10.9189V12H4.16216V13.746C4.16216 14.573 4.76757 15.2432 5.51351 15.2432C6.25945 15.2432 6.86485 14.573 6.86485 13.746V12H9.02701V16.7946C9.01831 17.2339 9.18414 17.6585 9.48812 17.9758C9.79216 18.2928 10.2094 18.4766 10.6487 18.4864C11.5459 18.4864 12.2703 17.7297 12.2703 16.7946V12H15.5135V15.8C15.5135 16.3892 15.9999 16.8648 16.5946 16.8648C17.1892 16.8648 17.6756 16.3892 17.6756 15.8V12H19.8378V13.0811C19.8378 13.3679 19.9517 13.6428 20.1544 13.8455C20.3572 14.0483 20.6322 14.1622 20.9189 14.1622C21.2055 14.1622 21.4806 14.0483 21.6833 13.8455C21.8861 13.6428 22 13.3679 22 13.0811V12H19.8378V8.60544C19.8378 8.09193 19.3514 7.67571 18.7567 7.67571C18.1621 7.67571 17.6756 8.09193 17.6756 8.60544V12H15.5135V7.17841C15.5135 6.2595 14.7891 5.51355 13.8919 5.51355Z" fill="url(#paint0_linear_364_12490)"/>
<defs>
<linearGradient id="paint0_linear_364_12490" x1="12" y1="5.51355" x2="12" y2="18.4864" gradientUnits="userSpaceOnUse">
<stop offset="0.24" stop-color="#6F4AEF"/>
<stop offset="0.66" stop-color="#01CBBF"/>
</linearGradient>
</defs>
</svg>

<svg xmlns="http://www.w3.org/2000/svg" width="24" height="24" fill="none" viewBox="0 0 24 24">
    <path fill="url(#MLN__a)" d="M13.892 5.514c-.897 0-1.622.745-1.622 1.664V12H9.027V8.762a1.081 1.081 0 1 0-2.162 0V12H4.162v-1.081a1.08 1.08 0 1 0-2.162 0V12h2.162v1.746c0 .827.606 1.497 1.352 1.497.745 0 1.35-.67 1.35-1.497V12h2.163v4.795a1.66 1.66 0 0 0 1.622 1.691c.897 0 1.621-.756 1.621-1.691V12h3.244v3.8c0 .59.486 1.065 1.08 1.065s1.082-.476 1.082-1.065V12h2.162v1.081a1.08 1.08 0 1 0 2.162 0V12h-2.162V8.605c0-.513-.487-.93-1.081-.93-.595 0-1.081.417-1.081.93V12h-2.162V7.178c0-.918-.725-1.664-1.622-1.664"/>
    <defs>
        <linearGradient id="MLN__a" x1="12" x2="12" y1="5.514" y2="18.486" gradientUnits="userSpaceOnUse">
            <stop offset=".24" stop-color="#6F4AEF"/>
            <stop offset=".66" stop-color="#01CBBF"/>
        </linearGradient>
    </defs>
</svg>
